X:5
T:Hearing Ear Dog
R:reel
C:Paul S. Cranford
O:Cape Breton Island
S:http://www.cranfordpub.com
D:currently unrecorded
B:currently unpublished in book form
Z:psc
H:                                                        copyrights Cranford Publications, SOCAN
L:1/8
Q:333
M:C|
K:A
F|E2 CE A,2 CE|cABA F2 AF|E2 CE Acec|BEBc B2 AF|
E2 CE A,2 CE|cABA FGAc|BEBc B2 Ac|ecBE A2 A||
||c|BE E/E/E B2 Ac|ecBE A2 Ac|BEcE dBcf |ecBE A2Ac|
BE E/E/E B2 Ac|ecBE A2 Ac|BEEe cABF|AFEC A,/A,/A, A,|]
